!!!!SEGMENT: Jos/Jos0403d-Missa_Pange_lingua-Sanctus.krn
!!!COM: Josquin des Prez
!!!CDT: ~1450-1521/08/27
!!!OPR: Missa Pange lingua
!!!ONM: 4
!!!OTL: Sanctus
!!!AGN: Mass; Sanctus
!!!SCT: NJE 4.3
!!!SCA: New Josquin Edition 4.3
!!!jrpid: Jos0403d
!!!voices: 4
!!!voices-OPR: 4
**kern	**text	**kern	**text	**kern	**text	**kern	**text
*staff4	*	*staff3	*	*staff2	*	*staff1	*
*Ivox	*	*Ivox	*	*Ivox	*	*Ivox	*
*I"Bassus	*	*I"Tenor	*	*I"Altus	*	*I"Superius	*
*I'B	*	*I'T	*	*I'A	*	*I'S	*
*>[A,B,C,D,C]	*>[A,B,C,D,C]	*>[A,B,C,D,C]	*>[A,B,C,D,C]	*>[A,B,C,D,C]	*>[A,B,C,D,C]	*>[A,B,C,D,C]	*>[A,B,C,D,C]
*>Sanctus[A]	*>Sanctus[A]	*>Sanctus[A]	*>Sanctus[A]	*>Sanctus[A]	*>Sanctus[A]	*>Sanctus[A]	*>Sanctus[A]
*>Pleni[B]	*>Pleni[B]	*>Pleni[B]	*>Pleni[B]	*>Pleni[B]	*>Pleni[B]	*>Pleni[B]	*>Pleni[B]
*>Osanna[C]	*>Osanna[C]	*>Osanna[C]	*>Osanna[C]	*>Osanna[C]	*>Osanna[C]	*>Osanna[C]	*>Osanna[C]
*>Benedictus[D]	*>Benedictus[D]	*>Benedictus[D]	*>Benedictus[D]	*>Benedictus[D]	*>Benedictus[D]	*>Benedictus[D]	*>Benedictus[D]
*>A	*>A	*>A	*>A	*>A	*>A	*>A	*>A
*clefF4	*	*clefGv2	*	*clefGv2	*	*clefG2	*
*k[]	*	*k[]	*	*k[]	*	*k[]	*
*M3/1	*	*M3/1	*	*M3/1	*	*M3/1	*
*met(O)	*	*met(O)	*	*met(O)	*	*met(O)	*
!!section: Sanctus
!!!OMD: Sanctus
=1-	=1-	=1-	=1-	=1-	=1-	=1-	=1-
0.r	.	0.r	.	0.r	.	0e	Sanc-
.	.	.	.	.	.	1e	-tus,
=2	=2	=2	=2	=2	=2	=2	=2
0.r	.	0.r	.	0A	Sanc-	1f	sanc-
.	.	.	.	.	.	0e	-tus,
.	.	.	.	1A	-tus,	.	.
=3	=3	=3	=3	=3	=3	=3	=3
0.r	.	0.r	.	1B	sanc-	2d/	sanc-
.	.	.	.	.	.	2g/	.
.	.	.	.	0A	-tus,	2a/	.
.	.	.	.	.	.	1cc	.
.	.	.	.	.	.	4b\	.
.	.	.	.	.	.	4a/	.
=4	=4	=4	=4	=4	=4	=4	=4
0.r	.	0.r	.	2G/	sanc-	2b\	.
.	.	.	.	2c\	.	2.cc\	.
.	.	.	.	2d\	.	.	.
.	.	.	.	.	.	4b\	.
.	.	.	.	1f	.	4a/	.
.	.	.	.	.	.	4g/	.
.	.	.	.	.	.	2a/	.
.	.	.	.	4e\	.	2b\	.
.	.	.	.	4d\	.	.	.
=5	=5	=5	=5	=5	=5	=5	=5
0.r	.	0.r	.	2e\	.	2cc\	.
.	.	.	.	2.f\	.	2.dd\	.
.	.	.	.	4e\	.	4cc\	.
.	.	.	.	4d\	.	1cc	.
.	.	.	.	4c\	.	.	.
.	.	.	.	1d	.	.	.
.	.	.	.	.	.	2b\	.
=6	=6	=6	=6	=6	=6	=6	=6
0.r	.	0.r	.	2.c\	.	1.cc	-tus,
.	.	.	.	4B\	.	.	.
.	.	.	.	2A/	.	.	.
.	.	.	.	2G/	.	2b\	sanc-
.	.	.	.	2c\	.	2a/	.
.	.	.	.	2B\	.	2g/	.
=7	=7	=7	=7	=7	=7	=7	=7
0.r	.	0E	Sanc-	2.e\	.	2cc\	.
.	.	.	.	.	.	2.b\	.
.	.	.	.	4d\	.	.	.
.	.	.	.	2e\	.	.	.
.	.	.	.	.	.	4a/	.
.	.	.	.	2c\	.	1a	.
.	.	1E	-tus,	1B	.	.	.
.	.	.	.	.	.	2g#i/	.
=8	=8	=8	=8	=8	=8	=8	=8
0AA	Sanc-	1F	sanc-	0.A	-tus	0.a	-tus
.	.	0E	-tus,	.	.	.	.
1AA	-tus,	.	.	.	.	.	.
=9	=9	=9	=9	=9	=9	=9	=9
1BB	sanc-	2D/	sanc-	0.r	.	0.r	.
.	.	2G/	.	.	.	.	.
0AA	-tus,	2A/	.	.	.	.	.
.	.	1c	.	.	.	.	.
.	.	4B\	.	.	.	.	.
.	.	4A/	.	.	.	.	.
=10	=10	=10	=10	=10	=10	=10	=10
2GG/	sanc-	2B\	.	0.r	.	0.r	.
2C/	.	2.c\	.	.	.	.	.
2D\	.	.	.	.	.	.	.
.	.	4B\	.	.	.	.	.
1F	.	4A/	.	.	.	.	.
.	.	4G/	.	.	.	.	.
.	.	2A/	.	.	.	.	.
4E\	.	2B\	.	.	.	.	.
4D\	.	.	.	.	.	.	.
=11	=11	=11	=11	=11	=11	=11	=11
2E\	.	2c\	.	0.r	.	0.r	.
2.F\	.	2.d\	.	.	.	.	.
4E\	.	4c\	.	.	.	.	.
4D\	.	1c	.	.	.	.	.
4C/	.	.	.	.	.	.	.
1D	.	.	.	.	.	.	.
.	.	2B\	.	.	.	.	.
=12	=12	=12	=12	=12	=12	=12	=12
0C	-tus,	1c	-tus,	1.e	do-	1.g	do-
.	.	1r	.	.	.	.	.
.	.	.	.	2e\	-mi-	2g/	-mi-
1r	.	[1c	do-	1e	-nus	1g	-nus
=13	=13	=13	=13	=13	=13	=13	=13
1.F	do-	2c\]	.	0f	de-	0a	de-
.	.	2c\	-mi-	.	.	.	.
.	.	1c	-nus	.	.	.	.
2F\	-mi-	.	.	.	.	.	.
1F	-nus	1d	de-	1f	-us	1a	-us
=14	=14	=14	=14	=14	=14	=14	=14
0F	de-	2c\	-us	0f	sa-	2a/	sa-
.	.	2A/	sa-	.	.	2.cc\	.
.	.	2c\	.	.	.	.	.
.	.	.	.	.	.	4b\	.
.	.	2d\	.	.	.	1a	.
1G	-us	1B	.	2.d\	-ba-	.	.
.	.	.	.	.	.	2g/	-ba-
.	.	.	.	4e\	.	.	.
=15	=15	=15	=15	=15	=15	=15	=15
2F\	sa-	1.A	-ba-	1.f	-oth,	1a	-oth,
2D\	.	.	.	.	.	.	.
2F\	.	.	.	.	.	1r	.
2G\	.	2B\	.	2d\	sa-	.	.
1E	.	1c	-oth,	2e\	.	1r	.
.	.	.	.	2g\	.	.	.
=16	=16	=16	=16	=16	=16	=16	=16
1.D	-ba-	2.d\	sa-	1.f	.	1a	sa-
.	.	4c\	.	.	.	.	.
.	.	2d\	.	.	.	2f/	.
2E\	.	2B\	.	4e\	.	2g/	.
.	.	.	.	4d\	.	.	.
1F	-oth,	1A	-ba-	2c\	.	1a	-ba-
.	.	.	.	2d\	.	.	.
=17	=17	=17	=17	=17	=17	=17	=17
2.G\	sa-	1G	-oth,	2B\	.	1d	-oth,
.	.	.	.	2G/	.	.	.
4F\	.	.	.	.	.	.	.
2G\	.	2r	.	2B\	.	2r	.
2E\	.	2G/	sa-	2c\	.	2g/	sa-
1D	-ba-	2.A/	-ba-	1d	-ba-	2.f/	-ba-
.	.	4B\	.	.	.	8e/L	.
.	.	.	.	.	.	8d/J	.
=18	=18	=18	=18	=18	=18	=18	=18
1C	-oth,	[0.cl	-oth.	1G	-oth,	1e	-oth,
2r	.	.	.	2r	.	2r	.
2C/	sa-	.	.	2G/	sa-	2e/	sa-
2.F\	-ba-	.	.	1A	-ba-	1f	-ba-
4E\	.	.	.	.	.	.	.
=19	=19	=19	=19	=19	=19	=19	=19
[0.Cl	-oth.	0.c_	.	1G	-oth,	[0.el	-oth.
.	.	.	.	2r	.	.	.
.	.	.	.	2G/	sa-	.	.
.	.	.	.	1A	-ba-	.	.
=20	=20	=20	=20	=20	=20	=20	=20
0.C]	.	0.c]	.	0.Gl	-oth.	0.e]	.
!!LO:LB:i:g=z
=21||	=21||	=21||	=21||	=21||	=21||	=21||	=21||
*>B	*>B	*>B	*>B	*>B	*>B	*>B	*>B
*clefF4	*	*clefGv2	*	*clefGv2	*	*clefG2	*
*k[]	*	*k[]	*	*k[]	*	*k[]	*
*M2/1	*	*M2/1	*	*M2/1	*	*M2/1	*
*met(C|)	*	*met(C|)	*	*met(C|)	*	*met(C|)	*
!!section: Pleni sunt celi
!!!OMD: Pleni sunt celi
0r	.	0r	.	2.E/	Ple-	0r	.
.	.	.	.	4F/	.	.	.
.	.	.	.	2G/	.	.	.
.	.	.	.	2A/	-ni	.	.
=22	=22	=22	=22	=22	=22	=22	=22
0r	.	0r	.	2E/	sunt	0r	.
.	.	.	.	2A/	ce-	.	.
.	.	.	.	2G/	.	.	.
.	.	.	.	[2c\	.	.	.
=23	=23	=23	=23	=23	=23	=23	=23
0r	.	0r	.	2c\]	.	2.e/	Ple-
.	.	.	.	4B\	.	.	.
.	.	.	.	4A/	.	4f/	.
.	.	.	.	2B\	.	2g/	.
.	.	.	.	2A/	.	2a/	-ni
=24	=24	=24	=24	=24	=24	=24	=24
0r	.	0r	.	2.c\	.	2e/	sunt
.	.	.	.	.	.	2a/	ce-
.	.	.	.	4d\	.	.	.
.	.	.	.	[1e	-li,	2g/	.
.	.	.	.	.	.	[2cc\	.
=25	=25	=25	=25	=25	=25	=25	=25
0r	.	0r	.	0e_	.	2cc\]	.
.	.	.	.	.	.	4b\	.
.	.	.	.	.	.	4a/	.
.	.	.	.	.	.	2cc\	.
.	.	.	.	.	.	[2b\	.
=26	=26	=26	=26	=26	=26	=26	=26
0r	.	0r	.	1e]	.	4b\]	.
.	.	.	.	.	.	4a/	.
.	.	.	.	.	.	2cc\	.
.	.	.	.	[1e	ple-	2b\	.
.	.	.	.	.	.	[2cc\	.
=27	=27	=27	=27	=27	=27	=27	=27
0r	.	0r	.	2e\]	.	2cc\]	.
.	.	.	.	2d\	-ni	4b\	.
.	.	.	.	.	.	4a/	.
.	.	.	.	1e	sunt	1g	.
=28	=28	=28	=28	=28	=28	=28	=28
0r	.	0r	.	1.f	ce-	1a	-li,
.	.	.	.	.	.	1d	.
.	.	.	.	4e\	.	.	.
.	.	.	.	4d\	.	.	.
=29	=29	=29	=29	=29	=29	=29	=29
0r	.	0r	.	1f	.	2r	.
.	.	.	.	.	.	2a/	ce-
.	.	.	.	1e	-li,	2b\	.
.	.	.	.	.	.	[2cc\	.
=30	=30	=30	=30	=30	=30	=30	=30
0r	.	0r	.	1.f	ce-	2cc\]	.
.	.	.	.	.	.	4b\	.
.	.	.	.	.	.	4a/	.
.	.	.	.	.	.	1dd	.
.	.	.	.	4e\	.	.	.
.	.	.	.	4d\	.	.	.
=31	=31	=31	=31	=31	=31	=31	=31
0r	.	0r	.	2f\	.	1.cc	.
.	.	.	.	2e\	.	.	.
.	.	.	.	2f\	.	.	.
.	.	.	.	2g\	.	2b\	.
=32	=32	=32	=32	=32	=32	=32	=32
0r	.	0r	.	2e\	.	2cc\	.
.	.	.	.	2f\	.	2.dd\	.
.	.	.	.	2d\	.	.	.
.	.	.	.	.	.	4cc\	.
.	.	.	.	[2e\	-li	4b\	.
.	.	.	.	.	.	4a/	.
=33	=33	=33	=33	=33	=33	=33	=33
0r	.	0r	.	2e\]	.	2.g/	.
.	.	.	.	2.e\	et	.	.
.	.	.	.	.	.	4a/	.
.	.	.	.	.	.	2b\	.
.	.	.	.	4d\	.	.	.
.	.	.	.	2e\	.	2cc\	-li
=34	=34	=34	=34	=34	=34	=34	=34
0r	.	0r	.	2f\	.	2a/	et
.	.	.	.	2d\	.	1b	ter-
.	.	.	.	1e	ter-	.	.
.	.	.	.	.	.	[2e/	-ra,
=35	=35	=35	=35	=35	=35	=35	=35
0r	.	0r	.	1E	-ra,	2e/]	.
.	.	.	.	.	.	2.b\	et
.	.	.	.	2.e\	et	.	.
.	.	.	.	.	.	4a/	.
.	.	.	.	.	.	2b\	.
.	.	.	.	4d\	.	.	.
=36	=36	=36	=36	=36	=36	=36	=36
0r	.	0r	.	2e\	.	2cc\	.
.	.	.	.	2f\	.	2a/	.
.	.	.	.	2d\	.	1b	ter-
.	.	.	.	[2e\	ter-	.	.
=37	=37	=37	=37	=37	=37	=37	=37
0r	.	0r	.	2e\]	.	1e	-ra,
.	.	.	.	1E	-ra,	.	.
.	.	.	.	.	.	[1g	et
.	.	.	.	[2e\	et	.	.
=38	=38	=38	=38	=38	=38	=38	=38
0r	.	0r	.	2e\]	.	2g/]	.
.	.	.	.	2f\	.	2a/	.
.	.	.	.	2d\	.	1b	.
.	.	.	.	[2e\	.	.	.
=39	=39	=39	=39	=39	=39	=39	=39
0r	.	0r	.	2e\]	.	2cc\	.
.	.	.	.	2f\	.	2.dd\	ter-
.	.	.	.	2d\	.	.	.
.	.	.	.	.	.	4cc\	.
.	.	.	.	[2e\	ter-	4b\	.
.	.	.	.	.	.	4a/	.
=40	=40	=40	=40	=40	=40	=40	=40
0r	.	0r	.	2e\]	.	2.g/	.
.	.	.	.	1E	-ra,	.	.
.	.	.	.	.	.	4a/	.
.	.	.	.	.	.	2b\	.
.	.	.	.	[2e\	et	2e/	-ra,
=41	=41	=41	=41	=41	=41	=41	=41
0r	.	0r	.	2e\]	.	2g/	et
.	.	.	.	2f\	.	2a/	.
.	.	.	.	2d\	.	2b\	.
.	.	.	.	[2e\	ter-	[2cc\	ter-
=42	=42	=42	=42	=42	=42	=42	=42
0r	.	0r	.	2e\]	.	4cc\]	.
.	.	.	.	.	.	4b\	.
.	.	.	.	2c\	.	1a	.
.	.	.	.	1B	.	.	.
.	.	.	.	.	.	2g#i/	.
=43	=43	=43	=43	=43	=43	=43	=43
0r	.	0r	.	[0A	-ra,	1a	-ra,
.	.	.	.	.	.	2r	.
.	.	.	.	.	.	2e/	glo-
=44	=44	=44	=44	=44	=44	=44	=44
0r	.	0r	.	0A]	.	2f/	-ri-
.	.	.	.	.	.	2e/	-a
.	.	.	.	.	.	1a	tu-
=45	=45	=45	=45	=45	=45	=45	=45
0r	.	0r	.	1r	.	1.g	.
.	.	.	.	1e	glo-	.	.
.	.	.	.	.	.	4f/	.
.	.	.	.	.	.	4e/	.
=46	=46	=46	=46	=46	=46	=46	=46
0r	.	0r	.	2f\	-ri-	2d/	.
.	.	.	.	2e\	-a	2c/	.
.	.	.	.	1a	tu-	1f	.
=47	=47	=47	=47	=47	=47	=47	=47
0r	.	0r	.	1.g	.	1e	-a,
.	.	.	.	.	.	1g	glo-
.	.	.	.	4f\	.	.	.
.	.	.	.	4e\	.	.	.
=48	=48	=48	=48	=48	=48	=48	=48
0r	.	0r	.	2d\	.	2f/	.
.	.	.	.	2c\	.	1e	.
.	.	.	.	1f	.	.	.
.	.	.	.	.	.	2d/	-ri-
=49	=49	=49	=49	=49	=49	=49	=49
0r	.	0r	.	2e\	a,	2e/	-a
.	.	.	.	2A/	tu-	4c/	tu-
.	.	.	.	.	.	4d/	.
.	.	.	.	2.c\	.	4e/	.
.	.	.	.	.	.	4f/	.
.	.	.	.	.	.	2g/	.
.	.	.	.	4B\	.	.	.
=50	=50	=50	=50	=50	=50	=50	=50
0r	.	0r	.	2A/	.	2f/	.
.	.	.	.	2G/	.	1e	.
.	.	.	.	1F	.	.	.
.	.	.	.	.	.	2d/	.
=51	=51	=51	=51	=51	=51	=51	=51
0r	.	0r	.	0E	a,	1e	-a,
.	.	.	.	.	.	2r	.
.	.	.	.	.	.	2e/	glo-
=52	=52	=52	=52	=52	=52	=52	=52
0r	.	0r	.	2r	.	2e/	-ri-
.	.	.	.	2e\	glo-	2.g/	-a
.	.	.	.	2e\	-ri-	.	.
.	.	.	.	.	.	4f/	.
.	.	.	.	[2g\	-a	4e/	.
.	.	.	.	.	.	4d/	.
=53	=53	=53	=53	=53	=53	=53	=53
0r	.	0r	.	4g\]	.	2e/	.
.	.	.	.	4f\	.	.	.
.	.	.	.	4e\	.	2c/	tu-
.	.	.	.	4d\	.	.	.
.	.	.	.	2e\	.	1g	a,
.	.	.	.	2c\	tu-	.	.
=54	=54	=54	=54	=54	=54	=54	=54
0r	.	0r	.	1g	a,	2r	.
.	.	.	.	.	.	2e/	glo-
.	.	.	.	2r	.	2e/	-ri-
.	.	.	.	2e\	glo-	[2g/	-a
=55	=55	=55	=55	=55	=55	=55	=55
0r	.	0r	.	2e\	-ri-	4g/]	.
.	.	.	.	.	.	4f/	.
.	.	.	.	2.g\	-a	4e/	.
.	.	.	.	.	.	4d/	.
.	.	.	.	.	.	2e/	.
.	.	.	.	4f\	.	.	.
.	.	.	.	4e\	.	2c/	tu-
.	.	.	.	4d\	.	.	.
=56	=56	=56	=56	=56	=56	=56	=56
0r	.	0r	.	2e\	.	1.g	a,
.	.	.	.	2c\	tu-	.	.
.	.	.	.	[1g	a,	.	.
.	.	.	.	.	.	2a/	tu-
=57	=57	=57	=57	=57	=57	=57	=57
0r	.	0r	.	2g\]	.	2b\	.
.	.	.	.	2e\	tu-	2cc\	.
.	.	.	.	2f\	.	2dd\	.
.	.	.	.	2g\	.	2b\	.
=58	=58	=58	=58	=58	=58	=58	=58
0r	.	0r	.	2e\	.	2cc\	.
.	.	.	.	2f\	.	2.dd\	.
.	.	.	.	2.g\	.	.	.
.	.	.	.	.	.	4g/	.
.	.	.	.	.	.	[2g/	-a,
.	.	.	.	4c\	.	.	.
=59	=59	=59	=59	=59	=59	=59	=59
0r	.	0r	.	1c	a,	2g/]	.
.	.	.	.	.	.	2cc\	tu-
.	.	.	.	2f\	tu-	2a/	.
.	.	.	.	2d\	.	[2b\	.
=60	=60	=60	=60	=60	=60	=60	=60
0r	.	0r	.	2.e\	.	4b\]	.
.	.	.	.	.	.	4g/	.
.	.	.	.	.	.	1g	-a,
.	.	.	.	4c\	.	.	.
.	.	.	.	1c	-a,	.	.
.	.	.	.	.	.	2cc\	tu-
=61	=61	=61	=61	=61	=61	=61	=61
0r	.	0r	.	2f\	tu-	2a/	.
.	.	.	.	2d\	.	2.b\	.
.	.	.	.	2.e\	.	.	.
.	.	.	.	.	.	4g/	.
.	.	.	.	.	.	[2g/	-a,
.	.	.	.	4c\	.	.	.
=62	=62	=62	=62	=62	=62	=62	=62
0r	.	0r	.	2c\	-a,	2g/]	.
.	.	.	.	2f\	tu-	2a/	tu-
.	.	.	.	2d\	.	2f/	.
.	.	.	.	[2e\	.	[2g/	.
=63	=63	=63	=63	=63	=63	=63	=63
0r	.	0r	.	4e\]	.	4g/]	.
.	.	.	.	4d\	.	4f/	.
.	.	.	.	1c	.	2e/	.
.	.	.	.	.	.	1d	-a,
.	.	.	.	2B\	.	.	.
=64	=64	=64	=64	=64	=64	=64	=64
0r	.	0r	.	0c	-a,	2r	.
.	.	.	.	.	.	2g/	glo-
.	.	.	.	.	.	2a/	-ri-
.	.	.	.	.	.	2g/	-a
=65	=65	=65	=65	=65	=65	=65	=65
0r	.	0r	.	2r	.	1cc	tu-
.	.	.	.	2c\	glo-	.	.
.	.	.	.	2d\	-ri-	2b\	.
.	.	.	.	2c\	-a	[2cc\	.
=66	=66	=66	=66	=66	=66	=66	=66
0r	.	0r	.	1f	tu-	4cc\]	.
.	.	.	.	.	.	4b\	.
.	.	.	.	.	.	2a/	.
.	.	.	.	2e\	.	2g/	.
.	.	.	.	[2f\	.	[2a/	.
=67	=67	=67	=67	=67	=67	=67	=67
0r	.	0r	.	4f\]	.	4a/]	.
.	.	.	.	4e\	.	4g/	.
.	.	.	.	2d\	.	2f/	.
.	.	.	.	2c\	.	2e/	.
.	.	.	.	[2d\	.	2f/	.
=68	=68	=68	=68	=68	=68	=68	=68
0r	.	0r	.	4d\]	.	2d/	-a,
.	.	.	.	4c\	.	.	.
.	.	.	.	2B\	.	2dd\	tu-
.	.	.	.	2A/	.	2cc\	.
.	.	.	.	2B\	.	[2dd\	.
=69	=69	=69	=69	=69	=69	=69	=69
0r	.	0r	.	2G/	-a,	4dd\]	.
.	.	.	.	.	.	4cc\	.
.	.	.	.	2g\	tu-	2b\	.
.	.	.	.	2f\	.	2a/	.
.	.	.	.	[2g\	.	2b\	.
=70	=70	=70	=70	=70	=70	=70	=70
0r	.	0r	.	4g\]	.	2g/	-a,
.	.	.	.	4f\	.	.	.
.	.	.	.	2e\	.	2cc\	tu-
.	.	.	.	2d\	.	2b\	.
.	.	.	.	2e\	.	[2cc\	.
=71	=71	=71	=71	=71	=71	=71	=71
0r	.	0r	.	2c\	-a,	4cc\]	.
.	.	.	.	.	.	4b\	.
.	.	.	.	2f\	tu-	2a/	.
.	.	.	.	2e\	.	2g/	.
.	.	.	.	[2f\	.	[2a/	.
=72	=72	=72	=72	=72	=72	=72	=72
0r	.	0r	.	4f\]	.	4a/]	.
.	.	.	.	4e\	.	4g/	.
.	.	.	.	1d	.	2f/	.
.	.	.	.	.	.	1e	-a,
.	.	.	.	2c#i\	.	.	.
=73	=73	=73	=73	=73	=73	=73	=73
0r	.	0r	.	1d	-a,	3.d/V	glo-
.	.	.	.	.	.	6e/	.
.	.	.	.	.	.	3f/Z	-ri-
.	.	.	.	1r	.	3g/V	-a
.	.	.	.	.	.	3a/	tu-
.	.	.	.	.	.	3f/Z	.
=74	=74	=74	=74	=74	=74	=74	=74
0r	.	0r	.	3.G/V	glo-	1g	-a,
.	.	.	.	6A/	.	.	.
.	.	.	.	3B\Z	-ri-	.	.
.	.	.	.	3c\V	-a	1r	.
.	.	.	.	3d\	tu-	.	.
.	.	.	.	3B\Z	.	.	.
=75	=75	=75	=75	=75	=75	=75	=75
0r	.	0r	.	1c	-a,	3.g/V	glo-
.	.	.	.	.	.	6a/	.
.	.	.	.	.	.	3b\Z	-ri-
.	.	.	.	1r	.	3cc\V	-a
.	.	.	.	.	.	3dd\	tu-
.	.	.	.	.	.	3b\Z	.
=76	=76	=76	=76	=76	=76	=76	=76
0r	.	0r	.	3.c\V	glo-	1cc	-a,
.	.	.	.	6d\	.	.	.
.	.	.	.	3e\Z	-ri-	.	.
.	.	.	.	3f\V	-a	1r	.
.	.	.	.	3g\	tu-	.	.
.	.	.	.	3e\Z	.	.	.
=77	=77	=77	=77	=77	=77	=77	=77
0r	.	0r	.	1.f	-a,	3.a/V	glo-
.	.	.	.	.	.	6b\	.
.	.	.	.	.	.	3cc\Z	-ri-
.	.	.	.	.	.	3dd\V	-a
.	.	.	.	.	.	3ee\	tu-
.	.	.	.	2e\	glo-	.	.
.	.	.	.	.	.	3cc\Z	.
=78	=78	=78	=78	=78	=78	=78	=78
0r	.	0r	.	2f\	.	2.dd\	-a,
.	.	.	.	2d\	.	.	.
.	.	.	.	.	.	4cc\	.
.	.	.	.	2f\	-ri-	2a/	glo-
.	.	.	.	[2e\	-a,	2cc\	-ri-
=79	=79	=79	=79	=79	=79	=79	=79
0r	.	0r	.	2e\]	.	2b\	-a
.	.	.	.	2c\	glo-	1a	.
.	.	.	.	2d\	.	.	.
.	.	.	.	2e\	.	2g/	.
=80	=80	=80	=80	=80	=80	=80	=80
0r	.	0r	.	2f\	.	2.dd\	glo-
.	.	.	.	2d\	.	.	.
.	.	.	.	.	.	4cc\	.
.	.	.	.	2.f\	.	2a/	.
.	.	.	.	.	.	2cc\	-ri-
.	.	.	.	4e\	.	.	.
=81	=81	=81	=81	=81	=81	=81	=81
0r	.	0r	.	2d\	.	2b\	-a
.	.	.	.	2c\	.	1a	.
.	.	.	.	1B	-ri-	.	.
.	.	.	.	.	.	2g/	.
=82	=82	=82	=82	=82	=82	=82	=82
0r	.	0r	.	1A	-a.	2.a/	glo-
.	.	.	.	.	.	4g/	.
.	.	.	.	2r	.	2e/	.
.	.	.	.	2E/	glo-	2g/	-ri-
=83	=83	=83	=83	=83	=83	=83	=83
0r	.	0r	.	2F/	.	2f/	-a
.	.	.	.	2G/	.	1e	.
.	.	.	.	2A/	.	.	.
.	.	.	.	2B\	.	2d/	.
=84	=84	=84	=84	=84	=84	=84	=84
0r	.	0r	.	2c\	.	2.a/	glo-
.	.	.	.	2d\	-ri-	.	.
.	.	.	.	.	.	4g/	.
.	.	.	.	2e\	-a,	2e/	.
.	.	.	.	2E/	glo-	2g/	-ri-
=85	=85	=85	=85	=85	=85	=85	=85
0r	.	0r	.	2F/	.	2f/	-a
.	.	.	.	2G/	.	1e	.
.	.	.	.	2A/	.	.	.
.	.	.	.	2B\	.	2d/	.
=86	=86	=86	=86	=86	=86	=86	=86
0r	.	0r	.	2c\	.	2e/	glo-
.	.	.	.	2d\	-ri-	2f/	.
.	.	.	.	2e\	-a	2g/	.
.	.	.	.	[2f\	tu-	2a/	.
=87	=87	=87	=87	=87	=87	=87	=87
0r	.	0r	.	4f\]	.	2b\	-ri-
.	.	.	.	4e\	.	.	.
.	.	.	.	1e	.	1cc	-a
.	.	.	.	2d\	.	4b\	.
.	.	.	.	.	.	4a/	.
=88	=88	=88	=88	=88	=88	=88	=88
0r	.	0r	.	0e	-a,	1g	tu-
.	.	.	.	.	.	1c	.
=89	=89	=89	=89	=89	=89	=89	=89
0r	.	0r	.	2r	.	[0gl	-a.
.	.	.	.	2.e\	glo-	.	.
.	.	.	.	4d\	.	.	.
.	.	.	.	2B\	.	.	.
=90	=90	=90	=90	=90	=90	=90	=90
0r	.	0r	.	2c\	-ri-	0g_	.
.	.	.	.	2B\	-a	.	.
.	.	.	.	1e	tu-	.	.
=91	=91	=91	=91	=91	=91	=91	=91
0r	.	0r	.	0El	-a.	0g]	.
!!LO:LB:i:g=z
=92||	=92||	=92||	=92||	=92||	=92||	=92||	=92||
*>C	*>C	*>C	*>C	*>C	*>C	*>C	*>C
*clefF4	*	*clefGv2	*	*clefGv2	*	*clefG2	*
*k[]	*	*k[]	*	*k[]	*	*k[]	*
*M2/1	*	*M2/1	*	*M2/1	*	*M2/1	*
*met(C|)	*	*met(C|)	*	*met(C|)	*	*met(C|)	*
!!section: Osanna
!!!OMD: Osanna
2.E\	O-	2.B\	O-	0r	.	0r	.
4F\	.	4A/	.	.	.	.	.
2G\	.	2B\	.	.	.	.	.
2A\	-san-	[2c\	-san-	.	.	.	.
=93	=93	=93	=93	=93	=93	=93	=93
2.E\	.	4c\]	.	0r	.	0r	.
.	.	4B\	.	.	.	.	.
.	.	4c\	.	.	.	.	.
4F\	.	4A/	.	.	.	.	.
2G\	.	2B\	.	.	.	.	.
2A\	.	[2c\	.	.	.	.	.
=94	=94	=94	=94	=94	=94	=94	=94
2E\	.	4c\]	.	0r	.	0r	.
.	.	4B\	.	.	.	.	.
1A	.	4c\	.	.	.	.	.
.	.	4A/	.	.	.	.	.
.	.	1B	.	.	.	.	.
2G#i\	.	.	.	.	.	.	.
=95	=95	=95	=95	=95	=95	=95	=95
1A	-na,	1A	-na,	2.A/	O-	2.e/	O-
.	.	.	.	4B\	.	4d/	.
1r	.	1r	.	2c\	.	2e/	.
.	.	.	.	2d\	-san-	[2f/	-san-
=96	=96	=96	=96	=96	=96	=96	=93
0r	.	0r	.	2.A/	.	4f/]	.
.	.	.	.	.	.	4e/	.
.	.	.	.	.	.	4f/	.
.	.	.	.	4B\	.	4d/	.
.	.	.	.	2c\	.	2e/	.
.	.	.	.	2d\	.	[2f/	.
=97	=97	=97	=97	=97	=97	=97	=97
0r	.	0r	.	2A/	.	4f/]	.
.	.	.	.	.	.	4e/	.
.	.	.	.	1d	.	4f/	.
.	.	.	.	.	.	4d/	.
.	.	.	.	.	.	1e	.
.	.	.	.	2c#i\	.	.	.
=98	=98	=98	=98	=98	=98	=98	=98
2.D\	o-	2.A/	o-	[0d	-na,	0d	-na,
4E\	.	4G/	.	.	.	.	.
2F\	.	2A/	.	.	.	.	.
2G\	-san-	[2B\	-san-	.	.	.	.
=99	=99	=99	=99	=99	=99	=99	=99
2.D\	.	4B\]	.	0d]	.	0r	.
.	.	4A/	.	.	.	.	.
.	.	4B\	.	.	.	.	.
4E\	.	4G/	.	.	.	.	.
2F\	.	2A/	.	.	.	.	.
2G\	.	[2B\	.	.	.	.	.
=100	=100	=100	=100	=100	=100	=100	=100
2D\	.	4B\]	.	0r	.	0r	.
.	.	4A/	.	.	.	.	.
1G	.	4B\	.	.	.	.	.
.	.	4G/	.	.	.	.	.
.	.	1A	.	.	.	.	.
2F#i\	.	.	.	.	.	.	.
=101	=101	=101	=101	=101	=101	=101	=101
1.G	-na,	4G/	.	1r	.	2.g/	o-
.	.	4A/	.	.	.	.	.
.	.	4B\	.	.	.	.	.
.	.	4c\	.	.	.	4a/	.
.	.	2d\	.	1g	o-	2b\	.
2C/	o-	[2e\	.	.	.	2cc\	-san-
=102	=102	=102	=102	=102	=102	=102	=102
4c\	-san-	4e\]	.	2.e\	-san-	2.g/	.
4B\	.	4d\	.	.	.	.	.
4c\	.	4e\	.	.	.	.	.
4A\	.	4c\	.	4f\	.	4a/	.
2G\	.	2d\	.	1g	.	2b\	.
[2c\	.	[2e\	.	.	.	2cc\	.
=103	=103	=103	=103	=103	=103	=103	=103
4c\]	.	4e\]	.	2.e\	.	2g/	.
4B\	.	4d\	.	.	.	.	.
4c\	.	4e\	.	.	.	1cc	.
4A\	.	4c\	.	4f\	.	.	.
1G	.	1d	.	1g	.	.	.
.	.	.	.	.	.	2b\	.
=104	=104	=104	=104	=104	=104	=104	=104
*M3/1	*	*M3/1	*	*M3/1	*	*M3/1	*
*met(3)	*	*met(3)	*	*met(3)	*	*met(3)	*
1C	-na	0c	-na	0.e	-na	0cc	-na
1.c	in	.	.	.	.	.	.
.	.	1r	.	.	.	1r	.
2B\	.	.	.	.	.	.	.
=105	=105	=105	=105	=105	=105	=105	=105
1.A	.	0.r	.	0.r	.	1.cc	in
2F\	.	.	.	.	.	2a/	.
1G	ex-	.	.	.	.	1b	ex-
=106	=106	=106	=106	=106	=106	=106	=106
1F	-cel-	0.r	.	1.f	in	1a	-cel-
1D	.	.	.	.	.	1dd	.
.	.	.	.	2d\	.	.	.
1A	.	.	.	1e	ex-	1cc	.
=107	=107	=107	=107	=107	=107	=107	=107
1B	.	0.r	.	1d	-cel-	1.dd	.
1G	.	.	.	1g	.	.	.
.	.	.	.	.	.	2b\	.
1A	.	.	.	1f	.	1cc	.
=108	=108	=108	=108	=108	=108	=108	=108
1G	-sis,	0.r	.	1.g	.	1b	.
1r	.	.	.	.	.	1g	.
.	.	.	.	2e\	.	.	.
1r	.	.	.	1f	.	1a	.
=109	=109	=109	=109	=109	=109	=109	=109
0.r	.	1.c	in	1e	.	1g	-sis,
.	.	.	.	1c	.	1r	.
.	.	2A/	.	.	.	.	.
.	.	1B	ex-	1d	.	1r	.
=110	=110	=110	=110	=110	=110	=110	=110
1.F	in	1A	-cel-	1c	-sis,	0.r	.
.	.	1d	.	1F	.	.	.
2D\	.	.	.	.	.	.	.
1E	ex-	1c	.	1G	ex-	.	.
=111	=111	=111	=111	=111	=111	=111	=111
1D	-cel-	1.d	.	1A	-cel-	0.r	.
1G	.	.	.	1G	.	.	.
.	.	2B\	.	.	.	.	.
1F	.	1c	.	1A	.	.	.
=112	=112	=112	=112	=112	=112	=112	=112
1G	.	1B	.	1B	.	0.r	.
1E	.	1e	.	1c	.	.	.
1F	.	1d	.	1A	.	.	.
=113	=113	=113	=113	=113	=113	=113	=113
1E	.	1e	-sis,	1B	.	1.g	in
1C	.	1r	.	1e	.	.	.
.	.	.	.	.	.	2e/	.
1D	.	1r	.	1d	.	1f	ex-
=114	=114	=114	=114	=114	=114	=114	=114
0AA	-sis,	1.c	in	0.e	-sis,	1e	-cel-
.	.	.	.	.	.	1a	.
.	.	2A/	.	.	.	.	.
1E	ex-	1B	ex-	.	.	1g	.
=115	=115	=115	=115	=115	=115	=115	=115
1.F	-cel-	1A	-cel-	0.r	.	0a	-sis,
.	.	1d	.	.	.	.	.
2D\	.	.	.	.	.	.	.
1E	.	1c	.	.	.	1r	.
=116	=116	=116	=116	=116	=116	=116	=116
1D	.	1d	-sis,	1.d	in	0.r	.
1G	.	1r	.	.	.	.	.
.	.	.	.	2B\	.	.	.
1F	.	1r	.	1c	ex-	.	.
=117	=117	=117	=117	=117	=117	=117	=117
1.G	.	0.r	.	1B	-cel-	0.r	.
.	.	.	.	1G	.	.	.
2E\	.	.	.	.	.	.	.
1F	.	.	.	1A	.	.	.
=118	=118	=118	=118	=118	=118	=118	=118
1E	.	0.r	.	1G	.	1.g	in
1C	.	.	.	1c	.	.	.
.	.	.	.	.	.	2e/	.
1D	.	.	.	1B	.	1f	ex-
=119	=119	=119	=119	=119	=119	=119	=119
1C	.	1.c	in	1c	-sis,	1e	-cel-
1F	.	.	.	1r	.	1a	.
.	.	2A/	.	.	.	.	.
1E	.	1B	ex-	1r	.	1g	.
=120	=120	=120	=120	=120	=120	=120	=120
1F	-sis,	1A	-cel-	0.r	.	1a	-sis,
1D	.	1d	.	.	.	1f	.
1E	ex-	1c	.	.	.	1g	ex-
=121	=121	=121	=121	=121	=121	=121	=121
1D	-cel-	0d	-sis,	1.d	in	1f	-cel-
1G	.	.	.	.	.	1d	.
.	.	.	.	2B\	.	.	.
1C	.	1r	.	1c	ex-	1e	.
=122	=122	=122	=122	=122	=122	=122	=122
1G	.	0.r	.	1B	-cel-	1d	.
1E	.	.	.	1e	.	1g	.
1F	.	.	.	1d	.	1f	.
=123	=123	=123	=123	=123	=123	=123	=123
1E	.	1.e	in	0e	-sis,	1g	-sis,
1A	.	.	.	.	.	1e	.
.	.	2c\	.	.	.	.	.
1D	.	1d	ex-	1r	.	1f	ex-
=124	=124	=124	=124	=124	=124	=124	=124
1A	.	1c	-cel-	0.r	.	1e	-cel-
1F	.	1A	.	.	.	1a	.
1G	.	1B	.	.	.	1g	.
=125	=125	=125	=125	=125	=125	=125	=125
1F	.	1A	.	1r	.	1a	.
1D	.	1d	.	1r	.	1f	.
1E	.	1c	.	1e	ex-	1g	.
=126	=126	=126	=126	=126	=126	=126	=126
0D	-sis,	1d	.	1f	-cel-	1f	.
.	.	1.f	.	1d	.	1.a	.
1r	.	.	.	1f	.	.	.
.	.	2e\	.	.	.	2b\	.
=127	=127	=127	=127	=127	=127	=127	=127
1AA	in	1c	.	1e	.	1cc	.
1.D	.	1.d	.	1f	.	1.f	.
.	.	.	.	1d	.	.	.
2E\	.	2c\	.	.	.	2g/	.
=128	=128	=128	=128	=128	=128	=128	=128
1F	.	1A	.	1c	.	1.a	.
1D	.	0B	.	1d	.	.	.
.	.	.	.	.	.	2f/	.
1E	ex-	.	.	1B	.	1g	.
=129	=129	=129	=129	=129	=129	=129	=129
1AA	-cel-	1A	-sis,	1.c	-sis,	1a	-sis,
1.A	.	1r	.	.	.	1.cc	.
.	.	.	.	2d\	.	.	.
.	.	1A	ex-	1e	ex-	.	.
2G\	.	.	.	.	.	2b\	.
=130	=130	=130	=130	=130	=130	=130	=130
1E	.	1B	-cel-	1e	-cel-	1g	.
1.F	.	1.A	.	1c	.	1.a	in
.	.	.	.	1d	.	.	.
2E\	.	2B\	.	.	.	2g/	.
=131	=131	=131	=131	=131	=131	=131	=131
1C	.	1c	.	1e	.	1e	ex-
0D	.	1.F	.	1A	.	0f	-cel-
.	.	.	.	1d	.	.	.
.	.	2G/	.	.	.	.	.
=132	=132	=132	=132	=132	=132	=132	=132
0AA	-sis,	1A	.	1c	-sis,	1e	-sis,
.	.	1c	.	0e	.	1r	.
1E	ex-	1B	.	.	.	1g	ex-
=133	=133	=133	=133	=133	=133	=133	=133
1F	-cel-	0A	-sis,	1.c	in	1a	-cel-
1.A	.	.	.	.	.	1.cc	.
.	.	.	.	2d\	.	.	.
.	.	1A	ex-	1e	ex-	.	.
2G\	.	.	.	.	.	2b\	.
=134	=134	=134	=134	=134	=134	=134	=134
1E	.	1B	-cel-	1e	-cel-	1g	.
1.F	.	1.A	.	1c	.	1.a	.
.	.	.	.	1d	.	.	.
2E\	.	2B\	.	.	.	2g/	.
=135	=135	=135	=135	=135	=135	=135	=135
1C	.	1c	.	1e	.	1e	.
0D	.	1.F	.	1A	.	0f	.
.	.	.	.	1d	.	.	.
.	.	2G/	.	.	.	.	.
=136	=136	=136	=136	=136	=136	=136	=136
1AA	-sis,	1A	-sis,	1c	-sis,	[0.el	-sis.
1.C	in	1.E	in	1.e	in	.	.
2BB/	.	2F/	.	2d\	.	.	.
=137	=137	=137	=137	=137	=137	=137	=137
1GG	ex-	1G	ex-	1B	ex-	0.e_	.
0AA	-cel-	1.C	-cel-	0c	-cel-	.	.
.	.	2D/	.	.	.	.	.
=138	=138	=138	=138	=138	=138	=138	=138
0.El	-sis.	0.El	-sis.	0.Bl	-sis.	0.e]	.
=139||	=139||	=139||	=139||	=139||	=139||	=139||	=139||
!!LO:LB:i:g=z
*>D	*>D	*>D	*>D	*>D	*>D	*>D	*>D
*clefF4	*	*clefGv2	*	*clefGv2	*	*clefG2	*
*k[]	*	*k[]	*	*k[]	*	*k[]	*
*M2/1	*	*M2/1	*	*M2/1	*	*M2/1	*
*met(C|)	*	*met(C|)	*	*met(C|)	*	*met(C|)	*
!!section: Benedictus
!!!OMD: Benedictus
2AA/	Be-	0r	.	0r	.	0r	.
2BB/	.	.	.	.	.	.	.
2AA/	-ne-	.	.	.	.	.	.
[2D\	-dic-	.	.	.	.	.	.
=140	=140	=140	=140	=140	=140	=140	=140
2D\]	.	0r	.	0r	.	0r	.
4C/	.	.	.	.	.	.	.
4BB/	.	.	.	.	.	.	.
1AA	-tus,	.	.	.	.	.	.
=141	=141	=141	=141	=141	=141	=141	=141
0r	.	2E/	Be-	0r	.	0r	.
.	.	2F/	.	.	.	.	.
.	.	2E/	-ne-	.	.	.	.
.	.	[2A/	-dic-	.	.	.	.
=142	=142	=142	=142	=142	=142	=142	=142
0r	.	2A/]	.	0r	.	0r	.
.	.	4G/	.	.	.	.	.
.	.	4F/	.	.	.	.	.
.	.	1E	-tus,	.	.	.	.
=143	=143	=143	=143	=143	=143	=143	=143
2D\	be-	0r	.	0r	.	0r	.
2E\	.	.	.	.	.	.	.
2D\	-ne-	.	.	.	.	.	.
[2G\	-dic-	.	.	.	.	.	.
=144	=144	=144	=144	=144	=144	=144	=144
2G\]	.	0r	.	0r	.	0r	.
4F\	.	.	.	.	.	.	.
4E\	.	.	.	.	.	.	.
1D	-tus,	.	.	.	.	.	.
=145	=145	=145	=145	=145	=145	=145	=145
0r	.	2A/	be-	0r	.	0r	.
.	.	2B\	.	.	.	.	.
.	.	2A/	-ne-	.	.	.	.
.	.	[2d\	-dic-	.	.	.	.
=146	=146	=146	=146	=146	=146	=146	=146
0r	.	2d\]	.	0r	.	0r	.
.	.	4c\	.	.	.	.	.
.	.	4B\	.	.	.	.	.
.	.	1A	-tus,	.	.	.	.
=147	=147	=147	=147	=147	=147	=147	=147
2E\	be-	0r	.	0r	.	0r	.
2F\	.	.	.	.	.	.	.
2E\	-ne-	.	.	.	.	.	.
[2A\	-dic-	.	.	.	.	.	.
=148	=148	=148	=148	=148	=148	=148	=148
2A\]	.	0r	.	0r	.	0r	.
4G\	.	.	.	.	.	.	.
4F\	.	.	.	.	.	.	.
1E	-tus,	.	.	.	.	.	.
=149	=149	=149	=149	=149	=149	=149	=149
1r	.	2B\	be-	0r	.	0r	.
.	.	2c\	.	.	.	.	.
[1E	qui	2B\	-ne-	.	.	.	.
.	.	[2e\	-dic-	.	.	.	.
=150	=150	=150	=150	=150	=150	=150	=150
2E\]	.	2e\]	.	0r	.	0r	.
2F\	.	4d\	.	.	.	.	.
.	.	4c\	.	.	.	.	.
1G	.	1B	-tus,	.	.	.	.
=151	=151	=151	=151	=151	=151	=151	=151
1A	ve-	1r	.	0r	.	0r	.
2.E\	.	[1B	qui	.	.	.	.
4F\	.	.	.	.	.	.	.
=152	=152	=152	=152	=152	=152	=152	=152
2G\	.	2B\]	.	0r	.	0r	.
2A\	.	2c\	.	.	.	.	.
1F	.	1d	.	.	.	.	.
=153	=153	=153	=153	=153	=153	=153	=153
1E	-nit,	1e	ve-	0r	.	0r	.
1r	.	2.B\	.	.	.	.	.
.	.	4c\	.	.	.	.	.
=154	=154	=154	=154	=154	=154	=154	=154
2r	.	2d\	.	0r	.	0r	.
2.C/	qui	2e\	.	.	.	.	.
.	.	1c	.	.	.	.	.
4D\	.	.	.	.	.	.	.
4E\	.	.	.	.	.	.	.
4F\	.	.	.	.	.	.	.
=155	=155	=155	=155	=155	=155	=155	=155
2G\	ve-	2B\	-nit,	0r	.	0r	.
2E\	.	2.G/	qui	.	.	.	.
2.G\	.	.	.	.	.	.	.
.	.	4A/	.	.	.	.	.
.	.	4B\	.	.	.	.	.
4F\	.	4c\	.	.	.	.	.
=156	=156	=156	=156	=156	=156	=156	=156
2D\	.	2d\	ve-	0r	.	0r	.
2G\	.	2B\	.	.	.	.	.
2F\	.	2A/	.	.	.	.	.
2D\	.	2d\	.	.	.	.	.
=157	=157	=157	=157	=157	=157	=157	=157
2.F\	.	2c\	.	0r	.	0r	.
.	.	2A/	.	.	.	.	.
4E\	.	.	.	.	.	.	.
2C/	.	2.c\	.	.	.	.	.
[2E\	.	.	.	.	.	.	.
.	.	4B\	.	.	.	.	.
=158	=158	=158	=158	=158	=158	=158	=158
4E\]	.	2G/	.	0r	.	0r	.
4D\	.	.	.	.	.	.	.
2C/	.	1A	.	.	.	.	.
1BB	.	.	.	.	.	.	.
.	.	2G#i/	.	.	.	.	.
=159	=159	=159	=159	=159	=159	=159	=159
0AA	-nit	[0A	-nit	0r	.	0r	.
=160	=160	=160	=160	=160	=160	=160	=160
2r	.	0A]	.	0r	.	0r	.
2D\	in	.	.	.	.	.	.
2D\	no-	.	.	.	.	.	.
2D\	-mi-	.	.	.	.	.	.
=161	=161	=161	=161	=161	=161	=161	=161
1.F	-ne	2r	.	0r	.	0r	.
.	.	2A/	in	.	.	.	.
.	.	2A/	no-	.	.	.	.
4E\	.	2A/	-mi-	.	.	.	.
4D\	.	.	.	.	.	.	.
=162	=162	=162	=162	=162	=162	=162	=162
2E\	.	1.c	-ne	0r	.	0r	.
2AA/	.	.	.	.	.	.	.
1A	do-	.	.	.	.	.	.
.	.	4B\	.	.	.	.	.
.	.	4A/	.	.	.	.	.
=163	=163	=163	=163	=163	=163	=163	=163
1.G	.	2B\	.	0r	.	0r	.
.	.	2E/	.	.	.	.	.
.	.	1e	do-	.	.	.	.
4F\	.	.	.	.	.	.	.
4E\	.	.	.	.	.	.	.
=164	=164	=164	=164	=164	=164	=164	=164
2F\	.	1.d	.	0r	.	0r	.
2G\	-mi-	.	.	.	.	.	.
1D	-ni,	.	.	.	.	.	.
.	.	4c\	.	.	.	.	.
.	.	4B\	.	.	.	.	.
=165	=165	=165	=165	=165	=165	=165	=165
2.A\	do-	2c\	.	0r	.	0r	.
.	.	2A/	.	.	.	.	.
4F\	.	.	.	.	.	.	.
2G\	.	2B\	.	.	.	.	.
2A\	-mi-	[2c\	.	.	.	.	.
=166	=166	=166	=166	=166	=166	=166	=166
1E	-ni,	2c\]	.	0r	.	0r	.
.	.	4B\	.	.	.	.	.
.	.	4A/	.	.	.	.	.
2r	.	2G/	.	.	.	.	.
2AA/	in	2A/	-mi-	.	.	.	.
=167	=167	=167	=167	=167	=167	=167	=167
2AA/	no-	1E	-ni,	0r	.	0r	.
2AA/	-mi-	.	.	.	.	.	.
[1C	-ne	2r	.	.	.	.	.
.	.	2E/	in	.	.	.	.
=168	=168	=168	=168	=168	=168	=168	=168
2C/]	.	2E/	no-	0r	.	0r	.
4BB/	.	2E/	-mi-	.	.	.	.
4AA/	.	.	.	.	.	.	.
2BB/	.	[1G	-ne	.	.	.	.
2C/	.	.	.	.	.	.	.
=169	=169	=169	=169	=169	=169	=169	=169
4GG/	do-	2G/]	.	0r	.	0r	.
4AA/	.	.	.	.	.	.	.
4BB/	.	4F/	.	.	.	.	.
4C/	.	4E/	.	.	.	.	.
2D\	.	2F/	.	.	.	.	.
2E\	.	2G/	.	.	.	.	.
=170	=170	=170	=170	=170	=170	=170	=170
2F\	.	2.D/	do-	0r	.	0r	.
1D	.	.	.	.	.	.	.
.	.	4F/	.	.	.	.	.
.	.	1E	-mi-	.	.	.	.
2C#i/	-mi-	.	.	.	.	.	.
=171	=171	=171	=171	=171	=171	=171	=171
1D	-ni,	0D	-ni,	0r	.	0r	.
2r	.	.	.	.	.	.	.
2D\	in	.	.	.	.	.	.
=172	=172	=172	=172	=172	=172	=172	=172
2D\	no-	1r	.	0r	.	0r	.
2D\	-mi-	.	.	.	.	.	.
[1F	-ne	2r	.	.	.	.	.
.	.	2A/	in	.	.	.	.
=173	=173	=173	=173	=173	=173	=173	=173
2F\]	.	2A/	no-	0r	.	0r	.
4E\	.	2A/	-mi-	.	.	.	.
4D\	.	.	.	.	.	.	.
2E\	.	[1c	-ne	.	.	.	.
2F\	.	.	.	.	.	.	.
=174	=174	=174	=174	=174	=174	=174	=174
4C/	do-	2c\]	.	0r	.	0r	.
4D\	.	.	.	.	.	.	.
4E\	.	4B\	.	.	.	.	.
4F\	.	4A/	.	.	.	.	.
2G\	.	2B\	.	.	.	.	.
2A\	.	2c\	.	.	.	.	.
=175	=175	=175	=175	=175	=175	=175	=175
2B\	.	2.G/	do-	0r	.	0r	.
1G	.	.	.	.	.	.	.
.	.	4B\	.	.	.	.	.
.	.	1A	-mi-	.	.	.	.
2F#i\	-mi-	.	.	.	.	.	.
=176	=176	=176	=176	=176	=176	=176	=176
1G	-ni,	[0G	-ni,	0r	.	0r	.
2r	.	.	.	.	.	.	.
2E\	in	.	.	.	.	.	.
=177	=177	=177	=177	=177	=177	=177	=177
2E\	no-	1G]	.	0r	.	0r	.
2E\	-mi-	.	.	.	.	.	.
[1G	-ne	2r	.	.	.	.	.
.	.	2B\	in	.	.	.	.
=178	=178	=178	=178	=178	=178	=178	=178
2G\]	.	2B\	no-	0r	.	0r	.
4F\	.	2B\	-mi-	.	.	.	.
4E\	.	.	.	.	.	.	.
2F\	.	[1d	-ne	.	.	.	.
2G\	.	.	.	.	.	.	.
=179	=179	=179	=179	=179	=179	=179	=179
4D\	do-	2d\]	.	0r	.	0r	.
4E\	.	.	.	.	.	.	.
4F\	.	4c\	.	.	.	.	.
4G\	.	4B\	.	.	.	.	.
2A\	.	2c\	.	.	.	.	.
2B\	.	2d\	.	.	.	.	.
=180	=180	=180	=180	=180	=180	=180	=180
2c\	.	2.A/	do-	0r	.	0r	.
1A	.	.	.	.	.	.	.
.	.	4c\	.	.	.	.	.
.	.	1B	-mi-	.	.	.	.
2G#i\	-mi-	.	.	.	.	.	.
=181	=181	=181	=181	=181	=181	=181	=181
1A	-ni,	[0A	-ni,	0r	.	0r	.
2r	.	.	.	.	.	.	.
2AA/	in	.	.	.	.	.	.
=182	=182	=182	=182	=182	=182	=182	=182
2AA/	no-	1A]	.	0r	.	0r	.
2AA/	-mi-	.	.	.	.	.	.
[1C	-ne	2r	.	.	.	.	.
.	.	2E/	in	.	.	.	.
=183	=183	=183	=183	=183	=183	=183	=183
2C/]	.	2E/	no-	0r	.	0r	.
4BB/	.	2E/	-mi-	.	.	.	.
4AA/	.	.	.	.	.	.	.
2BB/	.	[1G	-ne	.	.	.	.
2C/	.	.	.	.	.	.	.
=184	=184	=184	=184	=184	=184	=184	=184
4GG/	do-	2G/]	.	0r	.	0r	.
4AA/	.	.	.	.	.	.	.
4BB/	.	4F/	.	.	.	.	.
4C/	.	4E/	.	.	.	.	.
2D\	.	2F/	.	.	.	.	.
2E\	.	2G/	.	.	.	.	.
=185	=185	=185	=185	=185	=185	=185	=185
2F\	.	2.D/	do-	0r	.	0r	.
1D	.	.	.	.	.	.	.
.	.	4F/	.	.	.	.	.
.	.	1E	-mi-	.	.	.	.
2C#i/	-mi-	.	.	.	.	.	.
=186	=186	=186	=186	=186	=186	=186	=186
0Dl	-ni.	0Dl	-ni.	0r	.	0r	.
!!LO:TX:i:Y=18:rj:t=Osanna ut supra
=||	=||	=||	=||	=||	=||	=||	=||
*-	*-	*-	*-	*-	*-	*-	*-
!!!RDF**kern: l=long note in original notation
!!!RDF**kern: i=editorial accidental
!!!RDF**kern: V=start of tuplet marker
!!!RDF**kern: Z=end of tuplet marker
!!!ENC: Will Watson 01/09/2011; Victoria Chang 04/09/2011; Jesse Rodin 12/29/2024
!!!END: 2011/04/09/
!!!EED: Jesse Rodin
!!!EEV: 2013/10/25/
!!attribution-level@Jos: 1 (secure, core group [checkmark])
!!!ONB: Translated from MusicXML and edited on 2011/09/14/ by Craig Sapp
!!muse2ps: T^@{OPR}^u^@{ONM}{. }@{OTL}^C^@{COM}^i2I150v90,90,90,120c122z18l2700t130
